X: 425
T: Boston Boy
C:Adam Steffey
B: jims roots
M:4/4
L:1/8
Q: 1/4=100
K:C
V:1 
%Q:420
"C"[ee][ee][ee]d c2 e2 | egga gedc | "G"BAG^F GABc | "C"dccd c2 cd|
eged c2 e2 | egga gedc | "G"BAGB AGEG | "C"DE C2 C2 d2||
eged cA c2 | egga gedc | "G"BAG^F GABc | "C"dccd c2 cd|
eged c2 e2 | egga gedc | "G"BAGB AGEG | "C"DE C2 C2 G,B,|
CB,CD ECDE | "F"FEFE FED^F | "G"G^FGA BcdB | "C"cAGc AGFE|
DCA,B, CDEG | "F"FEFE FED^F | "G"G^FGA BcdB | "C"cGFE C2 G,B,||
CB,CD ECDE | "F"FEFE FAG^F | "G"G^FGA BcdB | "C"cAGc AGFE|
DCA,B, CDEG | "F"FEFE FED^F | "G"G^FGA BcdB | "C"cGFE C2 [ec][ec]|
% abcbook-tune_id 6298c2455b7b8f50abb81d3a


% abcbook-boost 0
% abcbook-tablature 
% abcbook-transpose 
% abcbook-lastupdated 1654178373474
% abcbook-soundfonts 
% abcbook-repeats 1


